base/src/assets/images/model/mesh/ic_m6s.svg

<?xml version="1.0" encoding="UTF-8"?>
<svg width="70px" height="70px" viewBox="0 0 70 70" version="1.1" xmlns="http://www.w3.org/2000/svg" xmlns:xlink="http://www.w3.org/1999/xlink">
    <title>icon/ic_homepage_m6s_light</title>
    <g id="icon/ic_homepage_m6s_light" stroke="none" stroke-width="1" fill="none" fill-rule="evenodd">
        <path d="M66,2 C66.5522847,2 67,2.44771525 67,3 L67,16.8663341 C67,17.2730711 66.7536461,17.6392847 66.3769051,17.792586 L61.2538103,19.8772465 C60.7705102,20.0739082 60.2294898,20.0739082 59.7461897,19.8772465 L54.6230949,17.792586 C54.2463539,17.6392847 54,17.2730711 54,16.8663341 L54,3 C54,2.44771525 54.4477153,2 55,2 L66,2 Z M65,5 L59.6077612,5 C57.801194,5 56.3367164,6.39035311 56.3367164,8.10548093 C56.3367164,9.82060874 57.801194,11.2109619 59.6077612,11.2109619 L61.7289552,11.2109619 C62.1259701,11.2109619 62.4489552,11.517599 62.4489552,11.8945191 C62.4489552,12.2714391 62.1259701,12.5780763 61.7289552,12.5780763 L56.4656716,12.5780763 L56,15 L61.7289552,15 C63.5355224,15 65,13.6096469 65,11.8945191 C65,10.1793913 63.5355224,8.78903815 61.7289552,8.78903815 L59.6077612,8.78903815 C59.2107463,8.78903815 58.8877612,8.48240095 58.8877612,8.10548093 C58.8877612,7.7285609 59.2107463,7.42192371 59.6077612,7.42192371 L64.440597,7.42192371 C64.6268657,6.61480474 64.8137313,5.80711897 65,5 Z" id="形状结合" fill="#333333" fill-rule="nonzero"></path>
        <path d="M24.4111511,0.314589975 L24.641,0.326 L48.8681766,2.46998647 C50.421535,2.60767855 51.7122374,3.68826671 52.1388154,5.16067108 L52.1895061,5.35490055 L52.2300991,5.55330231 L52.7630319,8.6088621 L53.1340227,10.7822917 L53.5904144,13.5226794 L54.0030956,16.0832003 L54.3720862,18.4640229 L54.6201692,20.1318142 L54.8180808,21.5154331 L55.0761068,23.4195415 L55.1896198,24.3080643 L55.3404958,25.5615809 L55.4680793,26.7201332 L55.572348,27.7838974 L55.6532793,28.7530498 L55.6942572,29.3466763 L55.7248463,29.8983836 L55.7450399,30.408224 L55.7548314,30.8762498 L55.7542141,31.302513 L55.75,31.5 L55.7483854,54.6614723 L55.7351376,55.0129457 L55.7297378,55.1065218 L55.7297378,55.1065218 L55.7235027,55.2023872 L55.6902063,55.6088055 L55.6797928,55.7161649 L55.6797928,55.7161649 L55.6685433,55.8258326 L55.6151834,56.287649 L55.5484394,56.7866491 L55.4683047,57.3230343 L55.3747725,57.8970063 L55.2093395,58.8288796 L55.0822845,59.4976992 L54.8665359,60.5727883 L54.620568,61.7347131 L54.3443581,62.9841534 L54.1434059,63.866069 L53.7011222,65.7482997 C53.5514573,66.3739761 53.0705687,66.8670882 52.4488452,67.0324078 L52.0995057,67.1234772 L52.0995057,67.1234772 L51.7423662,67.2129771 L51.0046785,67.3872723 L50.6241256,67.4720694 L50.6241256,67.4720694 L50.2357637,67.5553007 L49.4356033,67.7170695 L49.2306789,67.7565345 L49.2306789,67.7565345 L49.0238002,67.7956089 L48.1767369,67.948002 L47.298382,68.0941539 L46.388717,68.2340716 L46.1564064,68.2680779 L46.1564064,68.2680779 L45.9221375,68.301695 L44.9654729,68.4322754 L44.7214081,68.463949 L44.7214081,68.463949 L44.4753832,68.4952342 L43.4716776,68.6164936 L42.4365881,68.7315481 L41.3700965,68.840405 L40.2721843,68.9430716 L39.1428331,69.0395551 L37.9820244,69.129863 L36.7897399,69.2140024 L35.565961,69.2919806 L34.3106694,69.363805 L33.0238467,69.4294827 L31.7054744,69.4890212 L30.3555341,69.5424277 L28.2713933,69.6110559 L26.8424524,69.6491643 L25.3818789,69.6811663 L23.8896546,69.707069 L21.5919323,69.734503 L20.0205,69.7456796 C19.3352492,69.7492457 18.6879818,69.567825 18.1287283,69.245957 L18,69.25 L13.5,69.25 C12.5750061,69.25 11.8189913,68.5327474 11.7544625,67.6262611 L11.7500964,67.481636 L12.0071096,43 L12.0025112,42.5939657 L11.9881505,42.1906811 L11.9631799,41.7772868 L11.9267516,41.3409232 L11.8780177,40.8687311 L11.8161304,40.3478508 L11.740242,39.7654229 L11.4878401,37.9308963 L11.3989519,37.2204974 L11.3344853,36.6150218 L11.3036014,36.2504396 L11.281361,35.9036561 L11.2668799,35.5631378 L11.2577726,35.0388779 L11.2496436,31.9262434 L11.2536641,28.9494715 L11.2706391,26.1517334 L11.307796,23.106416 L11.3628154,20.3768891 L11.3968743,19.1224278 L11.4489442,17.5569029 L11.4929128,16.4588667 L11.557979,15.0901204 L11.6494652,13.5215259 L11.7519756,12.0970515 L11.8417356,11.0511346 C11.8494983,10.9672032 11.8573312,10.8840523 11.8652339,10.8016616 C11.8791569,10.6565057 11.9111681,10.513659 11.9605232,10.3764432 C12.16178,9.81691429 12.4229093,9.22988962 12.7566537,8.57530168 L13.0608008,7.99674567 C13.114555,7.89725048 13.1698653,7.79614281 13.2267691,7.69330586 L13.5876098,7.05459818 C13.6510357,6.94437682 13.7161294,6.83219254 13.7829279,6.71792853 L14.2044743,6.00645315 C14.4670533,5.568444 14.7860986,5.07647402 15.1259091,4.58073621 L15.5413641,3.98725465 C16.172643,3.10395653 16.8249324,2.27350082 17.2900234,1.78861315 C17.6044484,1.46080466 18.0322718,1.26971339 18.4817908,1.25143998 L18.6511984,1.2527588 L22.1641263,1.45016669 C22.5449107,0.924241082 23.1002259,0.550959763 23.7264422,0.39478871 L23.9163305,0.354515167 L24.1002027,0.327527524 L24.2520508,0.315535907 L24.4111511,0.314589975 Z M24.881,3.859 L24.8120415,4.03284578 C24.3342953,5.18867663 23.7933006,6.29995589 23.1890763,7.36627582 C22.4821581,8.61382742 21.7244459,9.80045016 20.9159064,10.9258625 L20.7986436,11.08459 L20.8385646,12.1876529 L20.8900349,13.9506651 L20.9112967,14.8490487 L20.9112967,14.8490487 L20.9295767,15.7586853 L20.9571924,17.6117219 L20.9622331,18.0820159 L20.9622331,18.0820159 L20.9665287,18.555124 L20.9762594,20.4757011 L20.9740698,22.4413158 L20.9716601,22.9397576 L20.9716601,22.9397576 L20.9685055,23.4410149 L20.9484395,25.4742019 L20.9415612,25.9895387 L20.9415612,25.9895387 L20.9339383,26.5076919 L20.8960011,28.6084701 L20.8461526,30.7543197 L20.8167623,31.8441489 L20.8167623,31.8441489 L20.784395,32.9452492 L20.7490511,34.0576215 C20.7333182,34.5351814 20.6959429,35.0319111 20.6382444,35.5595886 L20.5911805,35.9613335 L20.53019,36.4233316 L20.4603424,36.9003381 L20.3786831,37.4142315 L19.9388721,39.9885394 L19.8354669,40.6615669 L19.7859597,41.0609422 L19.7595543,41.3856408 L19.7513434,41.607323 L19.7507741,66.0688578 C19.7925501,66.1745738 19.892611,66.2452398 20.002507,66.2452398 L20.3910999,66.2431739 L20.3910999,66.2431739 L20.7777238,66.2407401 L23.0561018,66.2183625 L24.5356034,66.1960449 L26.6956833,66.151488 L28.0962611,66.114407 L29.4652365,66.0714335 L30.8025909,66.0225746 L32.1083056,65.9678377 L33.3823618,65.9072301 L34.6247409,65.8407591 L35.8354241,65.768432 L37.0143927,65.6902559 L38.7233397,65.5620413 L39.8229399,65.469275 L40.89076,65.3706855 L41.9267813,65.2662799 L42.930985,65.1560655 L43.9033524,65.0400497 L44.8438648,64.9182396 L45.3021696,64.8551641 L45.3021696,64.8551641 L45.7525036,64.7906428 L46.6292499,64.6572663 L47.4740851,64.5181175 L48.2869904,64.3732037 L48.4852255,64.3360754 L48.4852255,64.3360754 L48.6814635,64.2985872 L49.446439,64.1450396 L50.0000694,64.025739 L50.0000694,64.025739 L50.541,63.901 L50.8211823,62.6930042 L51.0115297,61.8481912 L51.2716036,60.656947 L51.501119,59.5575375 L51.700051,58.5507103 L51.8683746,57.6372129 L51.9635734,57.0804336 L52.0451501,56.565688 L52.1130972,56.0931974 L52.1674075,55.6631833 L52.2080736,55.2758673 L52.235088,54.9314708 L52.2434736,54.7754366 L52.2434736,54.7754366 L52.2484435,54.6302153 L52.25,54.5 L52.250701,31.4504736 L52.2528154,31.3635649 L52.2528154,31.3635649 L52.2543143,31.2739456 L52.2543143,30.8884108 L52.2441323,30.4597005 L52.2242476,29.9879705 L52.1944908,29.4733768 L52.1548548,28.9160752 L52.1053323,28.3162215 L52.0124959,27.3369966 L51.938226,26.6314444 L51.8540445,25.8838856 L51.7091725,24.6841259 L51.6001808,23.8322323 L51.4180598,22.4767008 L51.2325762,21.1602341 L50.9951287,19.5428947 L50.7330712,17.8237925 L50.4464083,16.0029696 L50.1351447,14.0804683 L49.7992851,12.0563306 L49.3132196,9.19945236 L48.783447,6.16206229 C48.7676802,6.07292164 48.7056632,6.00111789 48.6239081,5.97085813 L48.5593052,5.95633104 L24.881,3.859 Z M19.313,4.795 L19.2465102,4.87861374 C18.6474179,5.63230794 17.8836792,6.7112871 17.346867,7.57594902 L17.0128357,8.13069103 L16.6541647,8.7438249 L16.3326946,9.31114571 C16.2316448,9.49293619 16.1366551,9.66756975 16.0475855,9.83552496 L15.797997,10.3198342 C15.6432583,10.6299884 15.5116399,10.9153437 15.4020218,11.1797286 L15.3277401,11.363952 L15.2403631,12.3814724 L15.1595997,13.4824802 L15.0856045,14.6746425 L15.0028629,16.3047117 L14.9446598,17.7300042 L14.8937261,19.2713691 L14.8405166,21.3729821 L14.8065032,23.2035423 L14.7749322,25.6909085 L14.7558044,28.4135466 L14.7496638,30.7711157 L14.7546131,34.2293297 L14.7616344,35.3118363 L14.7786197,35.7396509 L14.7986187,36.0366457 L14.843768,36.525169 L14.9096636,37.0957536 L15.0347839,38.0433423 L15.2570205,39.661318 L15.3321585,40.2666435 L15.3927383,40.8178384 L15.4395738,41.3294487 C15.4462796,41.4122265 15.4524466,41.493961 15.4580919,41.5749553 L15.4858371,42.0544625 C15.489463,42.133708 15.4926009,42.2128193 15.4952679,42.2920996 L15.5057542,42.7722321 L15.5070133,43.018364 L15.268,65.75 L16.2496436,65.74959 L16.25,41.6510733 L16.2555958,41.3545207 L16.2637709,41.162127 L16.2849685,40.8652648 L16.3192486,40.5389962 L16.3898969,40.0203491 L16.4948204,39.3585148 L16.9222579,36.8632438 L17.0318547,36.1622889 L17.1180445,35.5285211 C17.1759493,35.0638597 17.2161022,34.6360164 17.2379776,34.2366726 L17.2509489,33.9423785 L17.3180467,31.7492498 L17.3329779,31.2080364 L17.3329779,31.2080364 L17.347172,30.6696509 L17.3965766,28.5443894 L17.4341887,26.4643833 L17.4600105,24.429641 L17.4740443,22.4401711 L17.4762924,20.4959819 L17.4667571,18.5970819 C17.4517593,16.7729474 17.4200579,15.0130371 17.3716623,13.3173859 L17.3406217,12.3077066 L17.2780892,10.6127128 C17.2615631,10.2087706 17.3854042,9.81156569 17.6285696,9.48859052 C18.5310938,8.28984746 19.3695797,7.00740712 20.1439697,5.640783 C20.2884814,5.38575236 20.4289553,5.1276727 20.5653824,4.86656081 L19.313,4.795 Z M32.2454079,21.607242 L39.0570316,29.8578285 C39.4086464,30.2837223 40.0389416,30.3439373 40.4648353,29.9923225 C40.5636072,29.9107772 40.6457938,29.811016 40.7069269,29.6984626 L43.4150868,24.7124145 L41.1996692,32.3148174 C41.0672276,32.7693026 41,33.2402932 41,33.7136827 L41,51.9706767 C41,52.6378043 41.2223666,53.2858999 41.6319433,53.8124986 L45.2,58.4 L40.5551314,54.4697266 C40.2241718,54.1896839 39.7504593,54.154798 39.382046,54.3833363 L31.6180639,59.1995791 L37.9293487,53.8991662 C38.6080712,53.329154 39,52.488189 39,51.6018605 L39,34.3708028 C39,33.4734902 38.7585255,32.5927126 38.3009065,31.8208611 L32.2454079,21.607242 Z" id="形状结合" fill="#333333" fill-rule="nonzero"></path>
    </g>
</svg>

<svg xmlns="http://www.w3.org/2000/svg" width="70" height="70"><g fill="#333" fill-rule="nonzero"><path d="M66 2a1 1 0 0 1 1 1v13.866a1 1 0 0 1-.623.927l-5.123 2.084a2 2 0 0 1-1.508 0l-5.123-2.084a1 1 0 0 1-.623-.927V3a1 1 0 0 1 1-1h11Zm-1 3h-5.392c-1.807 0-3.271 1.39-3.271 3.105 0 1.716 1.464 3.106 3.27 3.106h2.122c.397 0 .72.307.72.684 0 .376-.323.683-.72.683h-5.263L56 15h5.729C63.536 15 65 13.61 65 11.895c0-1.716-1.464-3.106-3.271-3.106h-2.121c-.397 0-.72-.307-.72-.684 0-.376.323-.683.72-.683h4.833L65 5Z"/><path d="m24.411.315.23.011L48.868 2.47a3.75 3.75 0 0 1 3.27 2.69l.052.195.04.198.533 3.056.371 2.173.456 2.74.413 2.561.37 2.381.247 1.668.198 1.383.258 1.905.114.888.15 1.254.128 1.158.104 1.064.081.969.041.594.03.551.021.51.01.468v.427l-.005.197-.002 23.161-.013.352-.005.094-.006.095-.034.407-.01.107-.011.11-.054.462-.067.499-.08.536-.093.574-.166.932-.127.669-.215 1.075-.246 1.162-.277 1.25-.2.881-.443 1.882a1.75 1.75 0 0 1-1.252 1.284l-.35.091-.357.09-.737.174-.38.085-.39.083-.8.162-.204.04-.207.039-.847.152-.879.146-.91.14-.232.034-.234.034-.957.13-.244.032-.246.031-1.003.121-1.035.116-1.067.108-1.098.103-1.13.097-1.16.09-1.192.084-1.224.078-1.255.072-1.287.065-1.319.06-1.35.053-2.084.07-1.429.037-1.46.032-1.492.026-2.298.028-1.572.01a3.744 3.744 0 0 1-1.891-.499L18 69.25h-4.5a1.75 1.75 0 0 1-1.746-1.624l-.004-.144L12.007 43l-.004-.406-.015-.403-.025-.414-.036-.436-.049-.472-.062-.521-.076-.583-.252-1.834-.089-.71-.065-.606-.03-.365-.023-.346-.014-.34-.01-.525-.007-3.113.004-2.977.017-2.797.037-3.046.055-2.73.034-1.254.052-1.565.044-1.098.065-1.369.091-1.568.103-1.425.09-1.046.023-.25a1.75 1.75 0 0 1 .096-.425c.2-.56.462-1.146.796-1.8l.304-.58.166-.303.36-.638.196-.337.421-.712c.263-.438.582-.93.922-1.425l.415-.594c.632-.883 1.284-1.713 1.749-2.198a1.75 1.75 0 0 1 1.192-.538l.17.002 3.512.197c.38-.526.936-.899 1.562-1.055l.19-.04.184-.027.152-.012.16-.001Zm.47 3.544-.069.174a29.995 29.995 0 0 1-1.623 3.333 39.303 39.303 0 0 1-2.273 3.56l-.117.159.04 1.103.051 1.763.021.898.019.91.027 1.853.005.47.005.473.01 1.92-.003 1.966-.002.499-.003.501-.02 2.033-.007.516-.008.518-.038 2.1-.05 2.146-.03 1.09-.032 1.101-.035 1.113c-.016.477-.053.974-.11 1.502l-.048.401-.06.462-.07.477-.082.514-.44 2.575-.104.673-.049.399-.026.325-.009.221V66.07a.274.274 0 0 0 .252.176l.388-.002.387-.002 2.278-.023 1.48-.022 2.16-.045 1.4-.037 1.37-.043 1.337-.048 1.305-.055 1.274-.06 1.243-.067 1.21-.073 1.18-.078 1.708-.128 1.1-.093 1.068-.098 1.036-.105 1.004-.11.972-.116.94-.122.46-.063.45-.064.876-.134.845-.139.813-.145.198-.037.196-.037.765-.154.554-.12.541-.124.28-1.208.19-.845.26-1.191.23-1.1.2-1.006.167-.914.096-.557.081-.514.068-.473.054-.43.041-.387.027-.345.008-.156.005-.145.002-.13V31.45l.003-.086.001-.09v-.386l-.01-.428-.02-.472-.03-.515-.04-.557-.049-.6-.093-.979-.074-.706-.084-.747-.145-1.2-.109-.852-.182-1.355-.185-1.317-.238-1.617-.262-1.72-.287-1.82-.31-1.923-.337-2.024-.486-2.857-.53-3.037a.25.25 0 0 0-.16-.191l-.064-.015L24.881 3.86Zm-5.568.936-.066.084c-.6.753-1.363 1.832-1.9 2.697l-.334.555-.359.613-.321.567c-.101.182-.196.357-.285.525l-.25.484c-.155.31-.286.595-.396.86l-.074.184-.088 1.017-.08 1.101-.074 1.193-.083 1.63-.058 1.425-.051 1.541-.053 2.102-.034 1.83-.032 2.488-.02 2.723-.005 2.357.005 3.458.007 1.083.017.428.02.297.045.488.066.57.125.948.222 1.618.075.606.06.55.048.512.018.246.028.48.01.237.01.48.001.246-.239 22.732h.982V41.65l.006-.296.008-.193.021-.297.034-.326.07-.519.106-.661.427-2.496.11-.7.086-.634c.058-.465.098-.893.12-1.292l.013-.295.067-2.193.015-.541.014-.538.05-2.126.037-2.08.026-2.034.014-1.99.002-1.944-.01-1.899a260.233 260.233 0 0 0-.094-5.28l-.031-1.01-.063-1.694a1.75 1.75 0 0 1 .35-1.124 35.411 35.411 0 0 0 2.516-3.848c.144-.255.285-.513.421-.774l-1.252-.072Zm12.932 16.812 6.812 8.25a1 1 0 0 0 1.65-.159l2.708-4.986-2.215 7.603a5 5 0 0 0-.2 1.399V51.97a3 3 0 0 0 .632 1.841L45.2 58.4l-4.645-3.93a1 1 0 0 0-1.173-.087L31.618 59.2l6.311-5.3A3 3 0 0 0 39 51.601V34.37a5 5 0 0 0-.7-2.55l-6.055-10.214Z"/></g></svg>
